svg/azure-ip.svg

<?xml version="1.0" encoding="UTF-8"?>
<svg xmlns="http://www.w3.org/2000/svg" xmlns:xlink="http://www.w3.org/1999/xlink" width="32" height="32" viewBox="0 0 32 32">
<defs>
<linearGradient id="linear-pattern-0" gradientUnits="userSpaceOnUse" x1="9" y1="15.83" x2="9" y2="5.79" gradientTransform="matrix(1.777778, 0.00266842, -0.00266842, 1.777778, 0, 0)">
<stop offset="0" stop-color="rgb(19.607843%, 74.509804%, 86.666667%)" stop-opacity="1"/>
<stop offset="0.18" stop-color="rgb(19.607843%, 79.215686%, 91.764706%)" stop-opacity="1"/>
<stop offset="0.41" stop-color="rgb(19.607843%, 82.352941%, 94.901961%)" stop-opacity="1"/>
<stop offset="0.78" stop-color="rgb(19.607843%, 83.137255%, 96.078431%)" stop-opacity="1"/>
</linearGradient>
</defs>
<path fill-rule="nonzero" fill="url(#linear-pattern-0)" d="M 0.890625 10.292969 L 31.109375 10.292969 L 31.109375 27.148438 C 31.109375 27.707031 30.65625 28.160156 30.097656 28.160156 L 1.902344 28.160156 C 1.632812 28.160156 1.375 28.054688 1.1875 27.863281 C 0.996094 27.675781 0.890625 27.417969 0.890625 27.148438 Z M 0.890625 10.292969 "/>
<path fill-rule="nonzero" fill="rgb(46.27451%, 46.27451%, 46.27451%)" fill-opacity="1" d="M 1.902344 3.859375 L 30.097656 3.859375 C 30.65625 3.859375 31.109375 4.3125 31.109375 4.871094 L 31.109375 10.292969 L 0.890625 10.292969 L 0.890625 4.851562 C 0.898438 4.300781 1.351562 3.859375 1.902344 3.859375 "/>
<path fill-rule="nonzero" fill="rgb(94.901961%, 94.901961%, 94.901961%)" fill-opacity="1" d="M 22.792969 15.664062 C 21.4375 15.664062 20.339844 16.761719 20.335938 18.117188 C 20.339844 19.472656 21.4375 20.566406 22.792969 20.570312 C 24.148438 20.570312 25.246094 19.472656 25.246094 18.117188 C 25.246094 16.761719 24.148438 15.664062 22.792969 15.664062 M 16.105469 15.664062 C 14.75 15.664062 13.652344 16.761719 13.652344 18.117188 C 13.652344 19.46875 14.75 20.570312 16.105469 20.570312 C 17.457031 20.570312 18.558594 19.472656 18.558594 18.117188 C 18.558594 16.761719 17.460938 15.664062 16.105469 15.664062 M 9.207031 15.664062 C 7.851562 15.664062 6.753906 16.761719 6.753906 18.117188 C 6.753906 19.472656 7.851562 20.570312 9.207031 20.570312 C 10.5625 20.566406 11.660156 19.472656 11.664062 18.117188 C 11.664062 16.761719 10.5625 15.664062 9.207031 15.664062 M 5.457031 5.777344 L 26.558594 5.777344 C 26.835938 5.777344 27.058594 6 27.058594 6.277344 L 27.058594 7.875 C 27.058594 8.152344 26.835938 8.375 26.558594 8.375 L 5.457031 8.375 C 5.183594 8.371094 4.960938 8.148438 4.960938 7.875 L 4.960938 6.277344 C 4.960938 6 5.183594 5.777344 5.457031 5.777344 M 5.457031 5.777344 "/>
</svg>

<svg role="img" viewBox="0 0 32 32" height="32" width="32" xmlns="http://www.w3.org/2000/svg"><defs><linearGradient gradientTransform="rotate(.086)scale(1.77778)" gradientUnits="userSpaceOnUse" id="39__38__1__0__254__253__250__249__233__232__254__253__438__437__334__333__412__411__245__244__azure-ip_svg__svg/azure-ip.svg811__svg/azure-ip.svg809__azure-ip-lp-0" x1="9" x2="9" y1="15.83" y2="5.79"><stop offset="0" stop-color="rgb(19.607843%, 74.509804%, 86.666667%)"/><stop offset=".18" stop-color="rgb(19.607843%, 79.215686%, 91.764706%)"/><stop offset=".41" stop-color="rgb(19.607843%, 82.352941%, 94.901961%)"/><stop offset=".78" stop-color="rgb(19.607843%, 83.137255%, 96.078431%)"/></linearGradient></defs><path d="M.89 10.293h30.22v16.855c0 .559-.454 1.012-1.012 1.012H1.902a.998.998 0 0 1-.714-.297.998.998 0 0 1-.297-.715Zm0 0" fill="url(#39__38__1__0__254__253__250__249__233__232__254__253__438__437__334__333__412__411__245__244__azure-ip_svg__svg/azure-ip.svg811__svg/azure-ip.svg809__azure-ip-lp-0)"/><path d="M1.902 3.86h28.196c.558 0 1.011.453 1.011 1.011v5.422H.891V4.852a1.01 1.01 0 0 1 1.011-.993" fill="rgb(46.27451%, 46.27451%, 46.27451%)"/><path d="M22.793 15.664a2.458 2.458 0 0 0-2.457 2.453 2.46 2.46 0 0 0 2.457 2.453 2.452 2.452 0 1 0 0-4.906m-6.688 0a2.452 2.452 0 1 0-.001 4.905 2.452 2.452 0 0 0 .001-4.905m-6.898 0a2.452 2.452 0 1 0 0 4.906 2.46 2.46 0 0 0 2.457-2.453 2.456 2.456 0 0 0-2.457-2.453m-3.75-9.887h21.102c.277 0 .5.223.5.5v1.598c0 .277-.223.5-.5.5H5.457a.503.503 0 0 1-.496-.5V6.277c0-.277.223-.5.496-.5m0 0" fill="rgb(94.901961%, 94.901961%, 94.901961%)"/></svg>
